X: 081428
T: Hag at the Churn
S: B.Breathnach: "Ceol Rince na hEireann" II/43 (gan ainm)
Z: B.Black
N: Parts not repeated
L: 1/8
M: 6/8
R: jig
K: Dmix
ABG ADD|AB/A/G AdB|AB/A/G ADD|EFG EFG|
AB/A/G ADD|A2G AdB|AB/A/G ADD|EFG EFG||
AdB cBc|Add efg|AdB cBc|EDE GED|
AdB cBc|Add efg|fge dcA|GEF GED||
